Sources/FrostedUI/Resources/Icons.xcassets/messageNotification20.imageset/message-notification-20.svg

<svg width="20" height="20" viewBox="0 0 20 20" fill="none" xmlns="http://www.w3.org/2000/svg" data-fui-icon="true">
  <path
    d="M10.625 2.375C11.039 2.3752 11.375 2.71091 11.375 3.125C11.375 3.53909 11.039 3.8748 10.625 3.875H3.95898C3.45272 3.875 3.04199 4.28573 3.04199 4.79199V13.542C3.04217 14.0481 3.45282 14.458 3.95898 14.458H7.20996C7.58177 14.4581 7.94256 14.5893 8.22754 14.8281L9.94824 16.2705C9.97878 16.2959 10.0236 16.2969 10.0547 16.2715L11.8037 14.8223C12.0877 14.5871 12.445 14.458 12.8135 14.458H16.042C16.548 14.4578 16.9588 14.048 16.959 13.542V10.208C16.9592 9.79394 17.2949 9.45801 17.709 9.45801C18.1228 9.45838 18.4588 9.79417 18.459 10.208V13.542C18.4588 14.8764 17.3764 15.9578 16.042 15.958H12.8135C12.7941 15.958 12.7754 15.9655 12.7607 15.9775L11.0117 17.4258C10.4233 17.9133 9.5702 17.9109 8.98438 17.4199L7.26367 15.9775C7.2488 15.9651 7.22937 15.9581 7.20996 15.958H3.95898C2.62441 15.958 1.54217 14.8766 1.54199 13.542V4.79199C1.54199 3.4573 2.6243 2.375 3.95898 2.375H10.625ZM5.9375 8.3125C6.40905 8.31268 6.79102 8.6954 6.79102 9.16699C6.79084 9.63844 6.40894 10.0203 5.9375 10.0205C5.46591 10.0205 5.08318 9.63855 5.08301 9.16699C5.08301 8.69529 5.4658 8.3125 5.9375 8.3125ZM10 8.3125C10.4717 8.3125 10.8545 8.69529 10.8545 9.16699C10.8543 9.63855 10.4716 10.0205 10 10.0205C9.52841 10.0205 9.14568 9.63855 9.14551 9.16699C9.14551 8.69529 9.5283 8.3125 10 8.3125ZM15.833 1.54199C17.7429 1.54199 19.2918 3.09016 19.292 5C19.2918 6.90985 17.7429 8.45898 15.833 8.45898C13.9233 8.45881 12.3752 6.90974 12.375 5C12.3752 3.09027 13.9233 1.54217 15.833 1.54199ZM15.833 3.04199C14.7517 3.04217 13.8752 3.9187 13.875 5C13.8752 6.08131 14.7517 6.95881 15.833 6.95898C16.9144 6.95898 17.7918 6.08142 17.792 5C17.7918 3.91859 16.9144 3.04199 15.833 3.04199Z"
    fill="currentColor"
  />
</svg>

<svg xmlns="http://www.w3.org/2000/svg" width="20" height="20" fill="none" data-fui-icon="true" viewBox="0 0 20 20"><path fill="currentColor" d="M10.625 2.375a.75.75 0 0 1 0 1.5H3.959a.917.917 0 0 0-.917.917v8.75c0 .506.41.916.917.916H7.21c.372 0 .733.131 1.018.37l1.72 1.442c.03.026.076.027.107.002l1.749-1.45a1.6 1.6 0 0 1 1.01-.364h3.228c.506 0 .917-.41.917-.916v-3.334a.75.75 0 0 1 1.5 0v3.334a2.417 2.417 0 0 1-2.417 2.416h-3.229a.1.1 0 0 0-.052.02l-1.75 1.448a1.584 1.584 0 0 1-2.027-.006l-1.72-1.443a.1.1 0 0 0-.054-.019H3.959a2.417 2.417 0 0 1-2.417-2.416v-8.75a2.417 2.417 0 0 1 2.417-2.417zM5.938 8.313a.854.854 0 1 1-.002 1.708.854.854 0 0 1 .002-1.709m4.062 0a.855.855 0 1 1 0 1.71.855.855 0 0 1 0-1.71m5.833-6.771a3.459 3.459 0 1 1 0 6.918 3.459 3.459 0 0 1 0-6.918m0 1.5a1.958 1.958 0 1 0 0 3.917 1.958 1.958 0 0 0 0-3.917"/></svg>
